chrome/icons/globe.svg

<svg height="16" viewBox="0 0 1024 1024" width="16" xmlns="http://www.w3.org/2000/svg" xmlns:xlink="http://www.w3.org/1999/xlink">
  <path d="M1024,512C1024,559.333 1017.92,604.75 1005.75,648.25C993.583,691.75 976.417,732.5 954.25,770.5C932.083,808.5 905.417,843.083 874.25,874.25C843.083,905.417 808.5,932.083 770.5,954.25C732.5,976.417 691.667,993.583 648,1005.75C604.333,1017.92 559,1024 512,1024C464.667,1024 419.25,1017.92 375.75,1005.75C332.25,993.583 291.5,976.417 253.5,954.25C215.5,932.083 180.917,905.417 149.75,874.25C118.583,843.083 91.9167,808.5 69.75,770.5C47.5833,732.5 30.4167,691.667 18.25,648C6.08333,604.333 0,559 0,512C0,465 6.08333,419.667 18.25,376C30.4167,332.333 47.5833,291.5 69.75,253.5C91.9167,215.5 118.583,180.917 149.75,149.75C180.917,118.583 215.5,91.9167 253.5,69.75C291.5,47.5834 332.333,30.4167 376,18.25C419.667,6.08337 465,0 512,0C559,0 604.333,6.08337 648,18.25C691.667,30.4167 732.5,47.5834 770.5,69.75C808.5,91.9167 843.083,118.583 874.25,149.75C905.417,180.917 932.083,215.5 954.25,253.5C976.417,291.5 993.583,332.333 1005.75,376C1017.92,419.667 1024,465 1024,512ZM339.5,320L684.5,320C681.833,307 678,291.667 673,274C668,256.333 661.833,238 654.5,219C647.167,200 638.75,181.25 629.25,162.75C619.75,144.25 609.083,127.667 597.25,113C585.417,98.3334 572.417,86.5001 558.25,77.5C544.083,68.5001 528.667,64.0001 512,64C495.333,64.0001 479.917,68.5001 465.75,77.5C451.583,86.5001 438.583,98.3334 426.75,113C414.917,127.667 404.25,144.25 394.75,162.75C385.25,181.25 376.833,200 369.5,219C362.167,238 356,256.333 351,274C346,291.667 342.167,307 339.5,320ZM107,320L274,320C281.667,278.667 292.75,238.333 307.25,199C321.75,159.667 341.167,122.833 365.5,88.5C337.5,97.1667 310.667,109.167 285,124.5C259.333,139.833 235.417,157.667 213.25,178C191.083,198.333 170.917,220.5 152.75,244.5C134.583,268.5 119.333,293.667 107,320ZM658.5,88.5C682.833,122.833 702.25,159.667 716.75,199C731.25,238.333 742.333,278.667 750,320L917,320C904.333,293.667 889,268.5 871,244.5C853,220.5 832.917,198.333 810.75,178C788.583,157.667 764.667,139.833 739,124.5C713.333,109.167 686.5,97.1667 658.5,88.5ZM264,640C261,618.667 258.917,597.417 257.75,576.25C256.583,555.083 256,533.667 256,512C256,490.333 256.583,468.917 257.75,447.75C258.917,426.583 261,405.333 264,384L82.5,384C76.5,405 71.9167,426.083 68.75,447.25C65.5833,468.417 64,490 64,512C64,534 65.5833,555.583 68.75,576.75C71.9167,597.917 76.5,619 82.5,640ZM696,640C699,618.667 701.083,597.417 702.25,576.25C703.417,555.083 704,533.667 704,512C704,490.333 703.417,468.917 702.25,447.75C701.083,426.583 699,405.333 696,384L328,384C325,405.333 322.917,426.583 321.75,447.75C320.583,468.917 320,490.333 320,512C320,533.667 320.583,555.083 321.75,576.25C322.917,597.417 325,618.667 328,640ZM941.5,384L760,384C763,405.333 765.083,426.583 766.25,447.75C767.417,468.917 768,490.333 768,512C768,533.667 767.417,555.083 766.25,576.25C765.083,597.417 763,618.667 760,640L941.5,640C947.5,619 952.083,597.917 955.25,576.75C958.417,555.583 960,534 960,512C960,490 958.417,468.417 955.25,447.25C952.083,426.083 947.5,405 941.5,384ZM365.5,935.5C341.167,901.167 321.75,864.333 307.25,825C292.75,785.667 281.667,745.333 274,704L107,704C119.333,730 134.5,755.083 152.5,779.25C170.5,803.417 190.667,825.583 213,845.75C235.333,865.917 259.333,883.75 285,899.25C310.667,914.75 337.5,926.833 365.5,935.5ZM684.5,704L339.5,704C342.167,717 346,732.333 351,750C356,767.667 362.167,786 369.5,805C376.833,824 385.25,842.75 394.75,861.25C404.25,879.75 414.917,896.333 426.75,911C438.583,925.667 451.583,937.5 465.75,946.5C479.917,955.5 495.333,960 512,960C528.667,960 544.083,955.5 558.25,946.5C572.417,937.5 585.417,925.667 597.25,911C609.083,896.333 619.75,879.75 629.25,861.25C638.75,842.75 647.167,824 654.5,805C661.833,786 668,767.667 673,750C678,732.333 681.833,717 684.5,704ZM917,704L750,704C742.333,745.333 731.25,785.667 716.75,825C702.25,864.333 682.833,901.167 658.5,935.5C686.5,926.833 713.333,914.833 739,899.5C764.667,884.167 788.583,866.333 810.75,846C832.917,825.667 853,803.5 871,779.5C889,755.5 904.333,730.333 917,704Z" fill="context-fill" fill-opacity="context-fill-opacity">
  </path>
</svg>

<svg xmlns="http://www.w3.org/2000/svg" width="16" height="16" viewBox="0 0 1024 1024"><path fill="context-fill" fill-opacity="context-fill-opacity" d="M1024 512c0 47.333-6.08 92.75-18.25 136.25q-18.25 65.25-51.5 122.25t-80 103.75-103.75 80-122.5 51.5c-43.667 12.17-89 18.25-136 18.25-47.333 0-92.75-6.08-136.25-18.25q-65.25-18.25-122.25-51.5t-103.75-80-80-103.75T18.25 648 0 512t18.25-136 51.5-122.5 80-103.75 103.75-80T376 18.25 512 0t136 18.25 122.5 51.5 103.75 80 80 103.75 51.5 122.5c12.17 43.667 18.25 89 18.25 136M339.5 320h345q-4-19.5-11.5-46t-18.5-55-25.25-56.25-32-49.75-39-35.5T512 64t-46.25 13.5-39 35.5-32 49.75T369.5 219 351 274t-11.5 46M107 320h167a738.7 738.7 0 0 1 33.25-121Q329 140 365.5 88.5q-42 13-80.5 36T213.25 178a497.5 497.5 0 0 0-60.5 66.5Q125.5 280.5 107 320M658.5 88.5Q695 140 716.75 199A738.7 738.7 0 0 1 750 320h167q-19-39.5-46-75.5T810.75 178 739 124.5t-80.5-36M264 640a757 757 0 0 1-6.25-63.75A1167 1167 0 0 1 256 512q0-32.5 1.75-64.25A757 757 0 0 1 264 384H82.5q-9 31.5-13.75 63.25T64 512t4.75 64.75T82.5 640Zm432 0q4.5-32 6.25-63.75A1167 1167 0 0 0 704 512q0-32.5-1.75-64.25A757 757 0 0 0 696 384H328a757 757 0 0 0-6.25 63.75A1167 1167 0 0 0 320 512q0 32.5 1.75 64.25A757 757 0 0 0 328 640Zm245.5-256H760q4.5 32 6.25 63.75A1167 1167 0 0 1 768 512q0 32.5-1.75 64.25A757 757 0 0 1 760 640h181.5q9-31.5 13.75-63.25T960 512t-4.75-64.75T941.5 384m-576 551.5Q329 884 307.25 825A738.7 738.7 0 0 1 274 704H107q18.5 39 45.5 75.25a458 458 0 0 0 60.5 66.5 468.8 468.8 0 0 0 72 53.5q38.5 23.25 80.5 36.25m319-231.5h-345q4 19.5 11.5 46t18.5 55 25.25 56.25 32 49.75 39 35.5T512 960t46.25-13.5 39-35.5 32-49.75T654.5 805t18.5-55 11.5-46m232.5 0H750a738.7 738.7 0 0 1-33.25 121Q695 884 658.5 935.5q42-13 80.5-36t71.75-53.5A484.7 484.7 0 0 0 871 779.5q27-36 46-75.5"/></svg>
